src/status/16/insync-synced.svg

<svg version="1.1" viewBox="0 0 16 16" xmlns="http://www.w3.org/2000/svg">
    <defs>
        <style id="current-color-scheme" type="text/css">.ColorScheme-Text { color:#ffffff; } .ColorScheme-Highlight { color:#4285f4; } .ColorScheme-NeutralText { color:#ff9800; } .ColorScheme-PositiveText { color:#4caf50; } .ColorScheme-NegativeText { color:#f44336; }</style>
    </defs>
    <path class="ColorScheme-Text" d="m14 0c-4.9046625 0-9.0707466 3.2299795-10.484375 7.6738281 0.7349805-0.4238703 1.5657348-0.6537392 2.4140625-0.6679687 1.4681304-2.9693823 4.5243985-5.0058594 8.0703125-5.0058594v-2zm0 4c-2.546131 0-4.782678 1.372955-6.0078125 3.4160156 0.6171608 0.2681347 1.17385 0.6580828 1.6367187 1.1464844 0.8518378-1.5318325 2.4846338-2.5625 4.3710938-2.5625v-2zm-8.0097656 4c-0.6764894 0.001344-1.3625724 0.1747483-1.9902344 0.5371094-1.912976 1.10434-2.5672606 3.5501416-1.4628906 5.4628906 1.104371 1.912649 3.5500146 2.567231 5.4628906 1.462891 1.912976-1.104339 2.567262-3.548188 1.4628906-5.460938-0.690232-1.1954058-1.9028547-1.9016714-3.1835937-1.9921874-0.0960553-0.0067887-0.1924212-0.0099576-0.2890625-0.0097656zm6.5097656 0c-0.828427 0-1.5 0.6715729-1.5 1.5 0 0.828427 0.671573 1.5 1.5 1.5s1.5-0.671573 1.5-1.5c0-0.8284271-0.671573-1.5-1.5-1.5zm-4.5136719 2.177734 0.765625 0.644532-2.6894531 3.201172-2.0507812-1.708985 0.640625-0.767578 1.2851562 1.070313 2.0488281-2.439454zm3.0136719 1.822266v4h3v-4h-3z" fill="currentColor"/>
</svg>

<svg xmlns="http://www.w3.org/2000/svg" width="16" height="16" version="1.1">
 <defs>
  <style id="current-color-scheme" type="text/css">
   .ColorScheme-Text { color:#ffffff; } .ColorScheme-Highlight { color:#4285f4; } .ColorScheme-NeutralText { color:#ff9800; } .ColorScheme-PositiveText { color:#4caf50; } .ColorScheme-NegativeText { color:#f44336; }
  </style>
 </defs>
 <path style="fill:currentColor" class="ColorScheme-Text" d="M 14 0 C 9.0953375 0 4.9292534 3.2299795 3.515625 7.6738281 C 4.2506055 7.2499578 5.0813598 7.0200889 5.9296875 7.0058594 C 7.3978179 4.0364771 10.454086 2 14 2 L 14 0 z M 14 4 C 11.453869 4 9.217322 5.372955 7.9921875 7.4160156 C 8.6093483 7.6841503 9.1660375 8.0740984 9.6289062 8.5625 C 10.480744 7.0306675 12.11354 6 14 6 L 14 4 z M 5.9902344 8 C 5.313745 8.001344 4.627662 8.1747483 4 8.5371094 C 2.087024 9.6414494 1.4327394 12.087251 2.5371094 14 C 3.6414804 15.912649 6.087124 16.567231 8 15.462891 C 9.912976 14.358552 10.567262 11.914703 9.4628906 10.001953 C 8.7726586 8.8065472 7.5600359 8.1002816 6.2792969 8.0097656 C 6.1832416 8.0029769 6.0868757 7.999808 5.9902344 8 z M 12.5 8 C 11.671573 8 11 8.6715729 11 9.5 C 11 10.328427 11.671573 11 12.5 11 C 13.328427 11 14 10.328427 14 9.5 C 14 8.6715729 13.328427 8 12.5 8 z M 7.9863281 10.177734 L 8.7519531 10.822266 L 6.0625 14.023438 L 4.0117188 12.314453 L 4.6523438 11.546875 L 5.9375 12.617188 L 7.9863281 10.177734 z M 11 12 L 11 16 L 14 16 L 14 12 L 11 12 z"/>
</svg>
